X: 13
T:Mug of Brown Ale, The
M:6/8
R:jig
K:Ador
eAA fAA|gfg age|dBA G2A|BAB dBd|eAA fAA|gfg age|dBd gdB|BAG A2d:|
efg a2g|aba age|dBd g2d|gba ged|efg a2g|aba age|dge dBG|BAG A2d:|

